web/ui/src/assets/svgs/btn/setting.svg

<svg height="24" viewBox="0 0 24 24" width="24" xmlns="http://www.w3.org/2000/svg"><g fill="none"><path d="m0 0h24v24h-24z" fill="#000" opacity="0"/><path d="m21.5788662 13.5358473c-.2033587 1.0823668-.9705596 1.8096284-1.9091906 1.8096284h-.107573c-.673213.0073579-1.2136266.5579043-1.2084788 1.2311378.0053513.0986362.0238242.1961192.0549308.2898748.0161741.0550834.0348277.1092513.0559608.1625037.4289928.9830779.1033976 2.1322938-.7775005 2.7442541l-.0686635.0446313c-.012245.0080108-.0249478.0156782-.037765.0228879l-2.3278095 1.3046078c-.0186079.0100946-.0377045.019261-.0572196.0274655l-.0228879.0114439c-.286381.1245524-.5955565.188118-.9078469.1866505-.637855.0033723-1.2496144-.2529907-1.6945024-.7100958-.221254-.2283887-.4755978-.4222039-.7544983-.574943-.0846226-.0448374-.1788872-.0684036-.2746542-.0686635-.0957879-.0005639-.1898886.0252079-.2720222.0744999-.2787893.1565014-.5330472.3531521-.7546127.5836404-.4450521.465201-1.06203995.7265909-1.70583196.7227273-.30651912.0015202-.61007094-.0601095-.89171091-.1810862l-.01956912-.0078963-.07198231-.0343318c-.01312237-.0064086-.02609215-.0132749-.03890935-.020599l-2.41009135-1.3399696c-.01971626-.0112132-.03881691-.0234759-.05721965-.036735l-.02288785-.0160215c-.8712758-.6160675-1.18903485-1.7599809-.76033461-2.7371589.01983614-.0514976.03734535-.1037964.05252763-.1568962.03151759-.0940897.05037483-.1919549.05607525-.2910191.00483244-.6728343-.53521246-1.2229577-1.2080211-1.2305657h-.09715895c-.94561182 0-1.71658928-.7272616-1.91971901-1.8096284-.12784033-.6670191-.19821157-1.3437776-.21033941-2.0228288.01129391-.6794609.08205873-1.3566282.2114838-2.02374432.2024431-1.08225232.9741072-1.80962842 1.92189336-1.80962842h.09384021c.67323968-.00729534 1.21368969-.55787879 1.20847885-1.23113783-.01726564-.15495021-.05453996-.30700945-.11089166-.45237849-.42467353-.97464103-.10896309-2.11351846.75690143-2.73040691l.01819585-.01258832.06637478-.04360137c.01270276-.00801075.0256344-.01567818.03890936-.02288786l2.2835215-1.28847191c.01822537-.01003782.03689831-.01924064.05596081-.02757987l.02288786-.01144393c.28661285-.12637828.59667265-.19083921.90990675-.18916814.65200194-.00442054 1.27574589.26582974 1.7184203.74454199.2333209.24864172.5031779.46026704.8002739.62758504.1515285.08106537.3332504.08234932.4859092.00343318.3042199-.17169122.5793419-.39046017.8151511-.64818411.4429517-.48575453 1.0713441-.76055663 1.7287198-.75604204.3074828-.00129035.6119128.06105294.8941142.18315898l.020599.00926958.0696935.03307295c.0128172.0064849.0254056.0133894.037765.02071351l2.3667189 1.32509249c.0188405.01051027.0371361.0219689.0548164.03433179l.0228878.0160215c.870085.61690478 1.1875827 1.75987773.7603347 2.73715882 0 .00114439-.0251767.06305605-.0526421.15689626-.0315103.09408666-.0503299.19195604-.0559608.2910191-.0050218.67318258.5353191 1.22365484 1.2084788 1.23113784h.0948702c.9467562 0 1.7185347.72737609 1.9208634 1.80962842.1288511.66677727.199611 1.34347627.2114838 2.02248547v.0012588c-.0125072.6790716-.0829137 1.355839-.2104538 2.0229433zm-1.105598-3.88738809c-.0662603-.35384627-.2824361-.76777316-.6707286-.76777316h-.0954424c-1.4041355-.00636908-2.5382953-1.14784868-2.5356312-2.55199607.0051144-.22537001.0422991-.44886312.1104339-.66374785.0309158-.10719312.0678233-.21256666.1105483-.31562355.1777825-.41665649.0470336-.90086293-.3163102-1.17140053l-.0058364-.00343317-.0045775-.00343318-2.3858303-1.32623688-.0045775-.00343318-.0058364-.00240322c-.4048264-.15712382-.8644847-.05347451-1.1627032.2621804-.3731865.41049371-1.2800034 1.1876509-2.0461744 1.1876509-.3089861 0-.6941887-.13915817-1.1100611-.40248297-.3378208-.21450727-.6472614-.47073389-.92100733-.76262339-.30097203-.31385278-.76218517-.41388036-1.16613632-.25291082l-.00572197.00228878-.00469201.00343318-2.30206066 1.29510939-.00469201.00240323-.0058364.00457757c-.36206054.27144426-.49214209.75492819-.3151658 1.17140052.04231334.10320125.07917545.2085543.11043391.31562355.0683132.2148418.10550212.4383607.11043391.66374786.00234701 1.40450706-1.13239383 2.54600474-2.53689007 2.55199606h-.09715896c-.38600371.00228879-.60103512.41518573-.66729547.76777317-.11650941.59597405-.18072514 1.20098805-.19191468 1.80814075.01116586.6075706.07538147 1.2130047.19191468 1.8093995.06626035.3537318.28129176.7677732.66843987.7677732h.09727339c1.40418022.0063062 2.53840951 1.1478042 2.53574568 2.551996-.00486096.2253938-.04205155.4489227-.11043391.6637479-.03005135.1073779-.0669379.2127243-.11043391.3153946-.17786464.4169273-.0465754.9014291.31745458 1.171515l.0058364.0034332.00583641.0035476 2.42611285 1.342945.00572196.0024032.0069808.0022888c.40274465.1545552.85875833.0567546 1.16270314-.2493632.36620571-.387377 1.25677222-1.1180718 1.99971202-1.1180718.7371035 0 1.6230924.7167333 1.9880393 1.0960995.3066563.3043072.7640334.3989153 1.1662508.241238l.004692-.0022888.0057219-.0035476 2.343831-1.3117031.0058365-.0035476.004692-.0034332c.3628846-.2709047.4934931-.7548133.3161957-1.171515-.0427043-.1030996-.0799486-.208377-.1115783-.3153946-.0674225-.2150184-.104214-.4384638-.1092895-.6637479-.0024102-1.4044885 1.1322978-2.5460046 2.5367756-2.551996h.1070008c.2372326 0 .5511396-.2006121.6581403-.7677732h.0010299c.1151639-.5961758.1793673-1.2010733.1919147-1.8081407-.011026-.6077951-.0751654-1.2134628-.1916858-1.81008619zm-4.5569723 3.19285609c.004529.0660466-.0032316.1323604-.0228879.1955767-.2988773.8689199-.8721038 1.6171428-1.6332775 2.1318895-.7014851.4953134-1.5392311.7610621-2.3979607.7606783-1.8085046-.0095673-3.41139564-1.1664421-3.99015461-2.879865-.01662327-.0550295-.02434989-.1123611-.02288785-.1698279-.27595752-.9107343-.24158065-1.8873351.09773114-2.7764115.00296904-.0520942.01349299-.10348038.03124193-.1525476.65213295-1.57090512 2.18307929-2.59721969 3.88395489-2.60372301.6108481-.00026478 1.2141962.13455942 1.7668281.39481593.9726213.43903642 1.743425 1.22937902 2.1579816 2.21268358.0225675.0599264.0341958.1234168.0343318.1874515.3175516.8667103.3508605 1.8120248.0950991 2.6989362zm-4.0202521-4.40282265c-1.3396222-.01038268-2.54345635.8160895-3.01511512 2.06997685-.47165877 1.2538874-.11096351 2.6688686.90339502 3.5439527 1.0143585.8750842 2.4669341 1.0244064 3.6381113.3739916 1.0895655-.6409897 1.705456-1.8583363 1.5764028-3.1158601s-.9793618-2.32440194-2.176408-2.73072854c-.3000081-.09313366-.6122553-.14088686-.926386-.14167583z" fill="#6b7b8d"/></g></svg>

<?xml version="1.0" encoding="UTF-8"?>
<svg width="24px" height="24px" viewBox="0 0 24 24" version="1.1" xmlns="http://www.w3.org/2000/svg" xmlns:xlink="http://www.w3.org/1999/xlink">
    <title>toolbar_icon_set up_disabled</title>
    <g id="页面-1" stroke="none" stroke-width="1" fill="none" fill-rule="evenodd">
        <g id="系统设计规范" transform="translate(-569.000000, -6188.000000)" fill-rule="nonzero">
            <g id="toolbar_icon_set-up_default" transform="translate(569.000000, 6188.000000)">
                <rect id="矩形" fill="#000000" opacity="0" x="0" y="0" width="24" height="24"></rect>
                <path d="M21.5788662,13.5358473 C21.3755075,14.6182141 20.6083066,15.3454757 19.6696756,15.3454757 L19.5621026,15.3454757 C18.8888896,15.3528336 18.348476,15.90338 18.3536238,16.5766135 C18.3589751,16.6752497 18.377448,16.7727327 18.4085546,16.8664883 C18.4247287,16.9215717 18.4433823,16.9757396 18.4645154,17.028992 C18.8935082,18.0120699 18.567913,19.1612858 17.6870149,19.7732461 L17.6183514,19.8178774 C17.6061064,19.8258882 17.5934036,19.8335556 17.5805864,19.8407653 L15.2527769,21.1453731 C15.234169,21.1554677 15.2150724,21.1646341 15.1955573,21.1728386 L15.1726694,21.1842825 C14.8862884,21.3088349 14.5771129,21.3724005 14.2648225,21.370933 C13.6269675,21.3743053 13.0152081,21.1179423 12.5703201,20.6608372 C12.3490661,20.4324485 12.0947223,20.2386333 11.8158218,20.0858942 C11.7311992,20.0410568 11.6369346,20.0174906 11.5411676,20.0172307 C11.4453797,20.0166668 11.351279,20.0424386 11.2691454,20.0917306 C10.9903561,20.248232 10.7360982,20.4448827 10.5145327,20.675371 C10.0694806,21.140572 9.45249275,21.4019619 8.80870074,21.3980983 C8.50218162,21.3996185 8.1986298,21.3379888 7.91698983,21.2170121 L7.89742071,21.2091158 L7.8254384,21.174784 C7.81231603,21.1683754 7.79934625,21.1615091 7.78652905,21.154185 L5.3764377,19.8142154 C5.35672144,19.8030022 5.33762079,19.7907395 5.31921805,19.7774804 L5.2963302,19.7614589 C4.4250544,19.1453914 4.10729535,18.001478 4.53599559,17.0243 C4.55583173,16.9728024 4.57334094,16.9205036 4.58852322,16.8674038 C4.62004081,16.7733141 4.63889805,16.6754489 4.64459847,16.5763847 C4.64943091,15.9035504 4.10938601,15.353427 3.43657737,15.345819 L3.33941842,15.345819 C2.3938066,15.345819 1.62282914,14.6185574 1.41969941,13.5361906 C1.29185908,12.8691715 1.22148784,12.192413 1.20936,11.5133618 C1.22065391,10.8339009 1.29141873,10.1567336 1.4208438,9.48961748 C1.6232869,8.40736516 2.394951,7.67998906 3.34273716,7.67998906 L3.43657737,7.67998906 C4.10981705,7.67269372 4.65026706,7.12211027 4.64505622,6.44885123 C4.62779058,6.29390102 4.59051626,6.14184178 4.53416456,5.99647274 C4.10949103,5.02183171 4.42520147,3.88295428 5.29106599,3.26606583 L5.30926184,3.25347751 L5.37563662,3.20987614 C5.38833938,3.20186539 5.40127102,3.19419796 5.41454598,3.18698828 L7.69806748,1.89851637 C7.71629285,1.88847855 7.73496579,1.87927573 7.75402829,1.8709365 L7.77691615,1.85949257 C8.063529,1.73311429 8.3735888,1.66865336 8.6868229,1.67032443 C9.33882484,1.66590389 9.96256879,1.93615417 10.4052432,2.41486642 C10.6385641,2.66350814 10.9084211,2.87513346 11.2055171,3.04245146 C11.3570456,3.12351683 11.5387675,3.12480078 11.6914263,3.04588464 C11.9956462,2.87419342 12.2707682,2.65542447 12.5065774,2.39770053 C12.9495291,1.911946 13.5779215,1.6371439 14.2352972,1.64165849 C14.54278,1.64036814 14.84721,1.70271143 15.1294114,1.82481747 L15.1500104,1.83408705 L15.2197039,1.86716 C15.2325211,1.8736449 15.2451095,1.8805494 15.2574689,1.88787351 L17.6241878,3.212966 C17.6430283,3.22347627 17.6613239,3.2349349 17.6790042,3.24729779 L17.701892,3.26331929 C18.571977,3.88022407 18.8894747,5.02319702 18.4622267,6.00047811 C18.4622267,6.0016225 18.43705,6.06353416 18.4095846,6.15737437 C18.3780743,6.25146103 18.3592547,6.34933041 18.3536238,6.44839347 C18.348602,7.12157605 18.8889429,7.67204831 19.5621026,7.67953131 L19.6569728,7.67953131 C20.603729,7.67953131 21.3755075,8.4069074 21.5778362,9.48915973 C21.7066873,10.155937 21.7774472,10.832636 21.78932,11.5116452 L21.78932,11.512904 C21.7768128,12.1919756 21.7064063,12.868743 21.5788662,13.5358473 L21.5788662,13.5358473 Z M20.4732682,9.64845921 C20.4070079,9.29461294 20.1908321,8.88068605 19.8025396,8.88068605 L19.7070972,8.88068605 C18.3029617,8.87431697 17.1688019,7.73283737 17.171466,6.32868998 C17.1765804,6.10331997 17.2137651,5.87982686 17.2818999,5.66494213 C17.3128157,5.55774901 17.3497232,5.45237547 17.3924482,5.34931858 C17.5702307,4.93266209 17.4394818,4.44845565 17.076138,4.17791805 L17.0703016,4.17448488 L17.0657241,4.1710517 L14.6798938,2.84481482 L14.6753163,2.84138164 L14.6694799,2.83897842 C14.2646535,2.6818546 13.8049952,2.78550391 13.5067767,3.10115882 C13.1335902,3.51165253 12.2267733,4.28880972 11.4606023,4.28880972 C11.1516162,4.28880972 10.7664136,4.14965155 10.3505412,3.88632675 C10.0127204,3.67181948 9.7032798,3.41559286 9.42953387,3.12370336 C9.12856184,2.80985058 8.6673487,2.709823 8.26339755,2.87079254 L8.25767558,2.87308132 L8.25298357,2.8765145 L5.95092291,4.17162389 L5.9462309,4.17402712 L5.9403945,4.17860469 C5.57833396,4.45004895 5.44825241,4.93353288 5.6252287,5.35000521 C5.66754204,5.45320646 5.70440415,5.55855951 5.73566261,5.66562876 C5.80397581,5.88047056 5.84116473,6.10398946 5.84609652,6.32937662 C5.84844353,7.73388368 4.71370269,8.87538136 3.30920645,8.88137268 L3.21204749,8.88137268 C2.82604378,8.88366147 2.61101237,9.29655841 2.54475202,9.64914585 C2.42824261,10.2451199 2.36402688,10.8501339 2.35283734,11.4572866 C2.3640032,12.0648572 2.42821881,12.6702913 2.54475202,13.2666861 C2.61101237,13.6204179 2.82604378,14.0344593 3.21319189,14.0344593 L3.31046528,14.0344593 C4.7146455,14.0407655 5.84887479,15.1822635 5.84621096,16.5864553 C5.84135,16.8118491 5.80415941,17.035378 5.73577705,17.2502032 C5.7057257,17.3575811 5.66883915,17.4629275 5.62534314,17.5655978 C5.4474785,17.9825251 5.57876774,18.4670269 5.94279772,18.7371128 L5.94863412,18.740546 L5.95447053,18.7440936 L8.38058338,20.0870386 L8.38630534,20.0894418 L8.39328614,20.0917306 C8.79603079,20.2462858 9.25204447,20.1484852 9.55598928,19.8423674 C9.92219499,19.4549904 10.8127615,18.7242956 11.5557013,18.7242956 C12.2928048,18.7242956 13.1787937,19.4410289 13.5437406,19.8203951 C13.8503969,20.1247023 14.307774,20.2193104 14.7099914,20.0616331 L14.7146834,20.0593443 L14.7204053,20.0557967 L17.0642363,18.7440936 L17.0700728,18.740546 L17.0747648,18.7371128 C17.4376494,18.4662081 17.5682579,17.9822995 17.3909605,17.5655978 C17.3482562,17.4624982 17.3110119,17.3572208 17.2793822,17.2502032 C17.2119597,17.0351848 17.1751682,16.8117394 17.1700927,16.5864553 C17.1676825,15.1819668 18.3023905,14.0404507 19.7068683,14.0344593 L19.8138691,14.0344593 C20.0511017,14.0344593 20.3650087,13.8338472 20.4720094,13.2666861 L20.4730393,13.2666861 C20.5882032,12.6705103 20.6524066,12.0656128 20.664954,11.4585454 C20.653928,10.8507503 20.5897886,10.2450826 20.4732682,9.64845921 L20.4732682,9.64845921 Z M15.9162959,12.8413153 C15.9208249,12.9073619 15.9130643,12.9736757 15.893408,13.036892 C15.5945307,13.9058119 15.0213042,14.6540348 14.2601305,15.1687815 C13.5586454,15.6640949 12.7208994,15.9298436 11.8621698,15.9294598 C10.0536652,15.9198925 8.45077416,14.7630177 7.87201519,13.0495948 C7.85539192,12.9945653 7.8476653,12.9372337 7.84912734,12.8797669 C7.57316982,11.9690326 7.60754669,10.9924318 7.94685848,10.1033554 C7.94982752,10.0512612 7.96035147,9.99987502 7.97810041,9.9508078 C8.63023336,8.37990268 10.1611797,7.35358811 11.8620553,7.34708479 C12.4729034,7.34682001 13.0762515,7.48164421 13.6288834,7.74190072 C14.6015047,8.18093714 15.3723084,8.97127974 15.786865,9.9545843 C15.8094325,10.0145107 15.8210608,10.0780011 15.8211968,10.1420358 C16.1387484,11.0087461 16.1720573,11.9540606 15.9162959,12.840972 L15.9162959,12.8413153 Z M11.8960438,8.43849265 C10.5564216,8.42810997 9.35258745,9.25458215 8.88092868,10.5084695 C8.40926991,11.7623569 8.76996517,13.1773381 9.7843237,14.0524222 C10.7986822,14.9275064 12.2512578,15.0768286 13.422435,14.4264138 C14.5120005,13.7854241 15.127891,12.5680775 14.9988378,11.3105537 C14.8697846,10.0530299 14.019476,8.98615176 12.8224298,8.57982516 C12.5224217,8.4866915 12.2101745,8.4389383 11.8960438,8.43814933 L11.8960438,8.43849265 Z" id="形状" fill="#6B7B8D"></path>
            </g>
        </g>
    </g>
</svg>
